X: 39
T: Czekałem z cierpliwością, a Pan mię obaczył
C: Mikołaj Gomółka
%%abc-version 2.0
%%abcx-abcm2ps-target-version 5.9.1 (29 Sep 2008)
%%abc-creator hum2abc beta
%%abcx-conversion-date 2021/10/04 07:59:09
%%abc-edited-by Anna Matuszewska
%%abcx-initial-encoding-date 2020-02-08
%%humdrum-veritas 3174747786
%%humdrum-veritas-data 3288805951
%%linebreak <none>
%%barnumbers 0
L: 1/4
M: 4/2
N: Derived from pl-wn--sd-xvi-qu-273--040_gomolka-mikolaj--czekalem-z-cierpliwoscia-a-pan-mie-obaczyl.krn
%%staves [1 2 3 4]
V: 1
V: 2 clef=alto
V: 3 clef=tenor
V: 4 clef=bass
K: F
[V:1] D4_E4 | 
[V:2] =B,4C4 | 
[V:3] G,4G,4 | 
[V:4] G,,4C,4 [|] 
[V:1] D2D4D2 | 
[V:2] A,2F4F2 | 
[V:3] ^F,2A,4B,2 | 
[V:4] D,2D,4B,,2 [|] 
[V:1] B,2C2D2A2 | 
[V:2] G2E2F2F2 | 
[V:3] G,4A,2D4 | 
[V:4] E,4D,2D,2 [|] 
[V:1] B4A2c2 | 
[V:2] G2DEF2E2 | 
[V:3] B,2C4 | 
[V:4] G,4F,2C,2 [|] 
[V:1] B4A2d2 | 
[V:2] F2EDC2A2 | 
[V:3] F,2G,2A,2F2 | 
[V:4] D,2E,2F,2D,2 [|] 
[V:1] =B2B2c3B | 
[V:2] G2G2G3F | 
[V:3] D2D2E3D | 
[V:4] G,2G,,2C,2C,2 [|] 
[V:1] A2c2B2B2 | 
[V:2] F2F2F2F2 | 
[V:3] C2C2D2D2 | 
[V:4] F,2F,,2B,,2B,,2 [|] 
[V:1] B4A4 |]  
[V:2] G4^F4 |]  
[V:3] D4D4 |]  
[V:4] G,,A,,B,,C,D,4 |]  


